X:57
T:Jessica's #1
M:C|
L:1/8
C:© Paul Gitlitz 1993
R:Reel
B:Giblitz Fancy
N:Composed for my goddaughter's first birthday.
K:G
"G" G2BG DGBG|DGBd "D7"cAFE|DFAF cAFD|DFAc "G"B3D|!
"G" G2BG DGBG|DGBd "D7"cAFE|DFAF cAFD|1DFAF "G"G3D:|2DFAF "G"G2GF|!
|:"Em"E3F GFGA|B3c BGFE|"D"D^CDE FEFG|A^GAB A=GFD|!
"Em"E3F GFGA|B3c BGFE|"D"D2e2 "A7"d^cBc|1"D"dcAF DE (3FED:|2"D"dcAF DE=F^F|]
